X: 508
T: Duplin House
%R: jig
B: "Preston's Twenty Four Country Dances for the Year 1803", Tho. Preston, ed. p.214 #2
F: http://folkopedia.efdss.org/images/archive/0/02/20121211105513%21Preston_24_1803.PDF
F: http://folkopedia.efdss.org/wiki/File:Preston_24_1803.PDF
Z: 2014 John Chambers <jc:trillian.mit.edu>
M: 6/8
L: 1/8
K: Bb
% - - - - - - - - - - - - - - - - - - - - - - - - -
|:\
B,3 B,CD | (B>c)d B2F | BGG G2f | g>fd c2B |\
B,2B, B,CD | B>(cd/c/) BGF | B3 FDF | FBD | C2B, :|
|:\
(Bd)f (fd)B | g>fd c2B | (Bd)g g>ab | B>(cd/e/) c2B |\
(Bd)f (fd)B | g>fd cBc | B3 FDF | FBD C2B, :|
% - - - - - - - - - - - - - - - - - - - - - - - - -
%%begintext align
%% Set & half right & left & back again,
%% lead down the middle up again and
%% hands 4 round at top.
%%endtext

%%sep 1 1 500
%%sep 1 1 500
